X:1
T: General Wemyss
C:Niel Gow
R:Strathspey
Q: 128
K:C
M:4/4
L:1/16
|:ef|g3c e3c dG3 B4|Fc3 Ec3 dD3 D2ef|g3c e3c dG3 B4|cG3 A3F EC3 C2ef|
g3c e3c dG3 B4|Fc3 Ec3 dD3 D2ef|g3c e3c dG3 B4|cG3 A3F EC3 C2F2|
EG3 CE3 cG3 F3E|Fc3 Ec3 dD3 D3F|EG3 CE3 cG3 AF3|cG3 AF3 EC3 C3F|
EG3 CE3 cG3 F3E|Fc3 Ec3 dD3 D3F|EG3 CE3 e3c d3B|c3G A3F E3C C2:|
